!!!COM:	Martini, Johannes
!!!CDT:	~1440///-~1497//
!!!OTL:	Ave decus virginale
!!!AGN:	Motet
!!!SCT:	Mar2005
!!!SCA:	Mar2005
!!!voices:	4
**kern	**kern	**kern	**kern
*staff4	*staff3	*staff2	*staff1
*Ivox	*Ivox	*Ivox	*Ivox
*I"Bassus	*I"Tenor	*I"Altus	*I"Superius
*I'B	*I'T	*I'A	*I'S
*clefF4	*clefGv2	*clefGv2	*clefG2
*k[b-]	*k[b-]	*k[b-]	*k[b-]
*M2/1	*M2/1	*M2/1	*M2/1
*met(C|)	*met(C|)	*met(C|)	*met(C|)
!!section: Ave decus virginale
!!!OMD: Ave decus virginale
=1-	=1-	=1-	=1-
1GG	0r	0r	1.g
1AA	.	.	.
.	.	.	4f/
.	.	.	4e/
=2	=2	=2	=2
0BB-	0r	0r	1.d
.	.	.	2e/
=3	=3	=3	=3
1AA	0r	0r	1.f
1D	.	.	.
.	.	.	4e/
.	.	.	4d/
=4	=4	=4	=4
0C	0r	1G	0e
.	.	1A	.
=5	=5	=5	=5
1D	0r	0B-	0d
1G	.	.	.
=6	=6	=6	=6
1F	0r	1A	1r
1D	.	1d	1f
=7	=7	=7	=7
1.E-i	1G	0c	1.g
.	1A	.	.
4D\	.	.	2f/
4C/	.	.	.
=8	=8	=8	=8
1BB-	0B-	[0d	1f
1GG	.	.	1g
=9	=9	=9	=9
0D	1A	0d]	1a
.	1d	.	1b-
=10	=10	=10	=10
0E-i	0c	0G	2.cc\
.	.	.	4b-\
.	.	.	2a/
.	.	.	2g/
=11	=11	=11	=11
1D	[0d	1A	1f
2G\	.	2B-\	2g/
[2F\	.	2A/	[2a/
=12	=12	=12	=12
2F\]	1d]	2F/	4a/]
.	.	.	4g/
2E\	.	2G/	1g
1D	1r	1A	.
.	.	.	2f#i/
=13	=13	=13	=13
1.G	1.d	2.G/	1g
.	.	4A/	.
.	.	2.B-\	1r
2A\	2d\	.	.
.	.	4c\	.
=14	=14	=14	=14
1B-	1d	2.d\	1g
.	.	4e\	.
[1F	[1c	1f	[1a
=15	=15	=15	=15
1F]	1c]	1c	1a]
1D	[1B-	1d	1f
=16	=16	=16	=16
0C	1B-]	0e-i	1g
.	1A	.	1cc
=17	=17	=17	=17
0BB-	1B-	1d	1dd
.	1d	[1f	[1b-
=18	=18	=18	=18
0F	0c	1f]	1b-]
.	.	1f	1a
=19	=19	=19	=19
0G	0B-	1d	1b-
.	.	1B-	1r
=20	=20	=20	=20
0C	0r	1.c	1g
.	.	.	1a
.	.	4B-\	.
.	.	4A/	.
=21	=21	=21	=21
1.G	0r	1G	0b-
.	.	1g	.
4F\	.	.	.
4E\	.	.	.
=22	=22	=22	=22
1D	0r	1f	1a
1GG	.	2d\	[1dd
.	.	[2g\	.
=23	=23	=23	=23
1G	0r	2g\]	1dd]
.	.	2f\	.
1A	.	1e	1cc
=24	=24	=24	=24
1B-	1G	1d	2dd\
.	.	.	2.b-\
1F	1A	1f	.
.	.	.	4a/
.	.	.	[2a/
=25	=25	=25	=25
0G	0B-	1d	2a/]
.	.	.	4g/
.	.	.	4f/
.	.	1e	1g
=26	=26	=26	=26
0D	1A	0d	1a
.	1d	.	2b-\
.	.	.	[2a/
=27	=27	=27	=27
0A	0c	1r	2a/]
.	.	.	4g/
.	.	.	4f/
.	.	1A	1e
=28	=28	=28	=28
1.D	0d	1.A	1d
.	.	.	1r
[2BB-/	.	[2B-\	.
=29	=29	=29	=29
1BB-]	1d	1B-]	1b-
1F	1r	1c	1a
=30	=30	=30	=30
2G\	0r	2B-\	1g
2B-\	.	1d	.
1A	.	.	1cc
.	.	2c\	.
=31	=31	=31	=31
2G\	0r	2d\	2b-\
1c	.	2.e\	2.a/
.	.	4d\	4g/
2B-\	.	[2d\	[2g/
=32	=32	=32	=32
1A	1r	2d\]	2g/]
.	.	2c\	2f#i/
2G\	1B-	1d	1g
[2G\	.	.	.
=33	=33	=33	=33
2G\]	1A	1c	0r
2F\	.	.	.
2G\	1G	1B-	.
[2E\	.	.	.
=34	=34	=34	=34
2E\]	1c	1A	0r
2C/	.	.	.
1D	2B-\	1r	.
.	[2A/	.	.
=35	=35	=35	=35
2C/	2A/]	0r	0r
2BB-/	1G	.	.
1AA	.	.	.
.	2F#i/	.	.
=36	=36	=36	=36
*M3/1	*M3/1	*M3/1	*M3/1
*met(O/3)	*met(O/3)	*met(O/3)	*met(O/3)
0GG	0G	1G	0.r
.	.	1G	.
1r	1r	1A	.
=37	=37	=37	=37
0.r	0.r	0B-	1g
.	.	.	1g
.	.	1A	1a
=38	=38	=38	=38
0.r	0.r	0d	0b-
.	.	1c	1a
=39	=39	=39	=39
1GG	0.r	2d\	0dd
.	.	2e\	.
1GG	.	2f\	.
.	.	2g\	.
1AA	.	1e	1cc
=40	=40	=40	=40
0BB-	1G	0d	1dd
.	1G	.	1b-
1AA	1A	1c	1cc
=41	=41	=41	=41
1D	0B-	1d	1f
1G	.	1B-	1g
1F	1A	1c	[1a
=42	=42	=42	=42
1D	1d	1F	1a]
0E	1.c	1.G	0g
.	2B-\	2F/	.
=43	=43	=43	=43
0.D	0d	0.A	0f
.	1r	.	1e
=44	=44	=44	=44
0BB-	0d	0B-	0f
1BB-	1d	[1f	1g
=45	=45	=45	=45
0F	0c	1f]	1.a
.	.	1f	.
.	.	.	2g/
[1G	[1B-	1d	[1b-
=46	=46	=46	=46
1G]	1B-]	1e	2b-\]
.	.	.	2a/
1F	1A	1f	1.cc
1G	1B-	[1d	.
.	.	.	2b-\
=47	=47	=47	=47
1B-	1d	2d\]	0b-
.	.	2e\	.
0F	0c	0f	.
.	.	.	1a
=48	=48	=48	=48
1G	0B-	0d	0b-
1G	.	.	.
1A	1r	1c	1r
=49	=49	=49	=49
0B-	0.r	1.d	0g
.	.	2e\	.
1A	.	1f	1a
=50	=50	=50	=50
1G	0G	0g	0b-
1E	.	.	.
1F	1A	1f	1a
=51	=51	=51	=51
0G	0B-	1.d	1g
.	.	.	1d
.	.	2c\	.
[1D	1A	1d	[1f
=52	=52	=52	=52
1D]	0d	1.A	1f]
0AA	.	.	0e
.	.	2G/	.
.	1c#i	1A	.
=53	=53	=53	=53
0.BB-	0d	0F	0d
.	1d	1f	1r
=54	=54	=54	=54
0GG	0.r	0g	0b-
1D	.	2f\	1a
.	.	2e\	.
=55	=55	=55	=55
0G	0B-	1d	1g
.	.	1e	0cc
1F	1A	1f	.
=56	=56	=56	=56
1G	1G	1d	1b-
1A	0c	1c	0a
1F	.	1A	.
=57	=57	=57	=57
1G	1B-	2B-\	1g
.	.	2c\	.
0D	1.A	0d	1r
.	.	.	1f
.	2G/	.	.
=58	=58	=58	=58
0GG	0G	0d	1g
.	.	.	1b-
1D	1F	1d	1a
=59	=59	=59	=59
1G	1G	0d	1b-
1F	1A	.	1.a
1G	1B-	1d	.
.	.	.	2g/
=60	=60	=60	=60
1C	1c	1e-i	0g
0D	0A	0d	.
.	.	.	1f#i
=61	=61	=61	=61
0.GGl	0.Gl	0.dl	0.gl
==	==	==	==
*-	*-	*-	*-
!!!RDF**kern: l=long note in original notation
!!!RDF**kern: i=editorial accidental
!!!RDF**kern: V=start of tuplet marker
!!!RDF**kern: Z=end of tuplet marker
!!!ENC:	Gage
!!!END:	2014/10/05/
!!!EED:	Jesse Rodin
!!!EEV:	2014/10/13/
!!!ONB:	Translated from MusicXML and edited on 2014/10/13/ by Craig Sapp
!!muse2ps: C^@{COM}^i2I150v85,85,85,150Q16
